X: 26
I: linebreak $
T: Spagnoletta
P: 5 times through (6 for Spagnoletta Nuova)
K: F major
M: 3/4
L: 1/8
GA | "Gm"d4d2 | "F"c3Bc2 | "Bb"d4d2 | c2d2e2 | "Bb"f3ed2 | "F"c3Bc2 | 
"Bb"d4d2 | "D"^F2G2A2 | "Gm"d4d2 | "F"c3Bc2 | "Bb"d4d2 | c2d2e2 | 
"Bb"f3ed2 | "F"c3Bc2 | "Bb"d4d2 | c2d2e2 | "Bb"f3ed2 | "Gm"d3cB2 | 
"F"c4c2 | c4c2 | "Gm"B3AG2 | "D"A3GA2 | "Gm"d4d2 | "C"c2d2e2 | 
"Bb"f3ed2 | "Gm"d3cB2 | "F"c4c2 | c3Bc2 | "Gm"B3AG2 | "D"d4d2 | 
"Gm"z2zAB2 | B3AG2 | "D"A4"C"G2 | "D"A3GA2 | "Gm"z2zdd2 | d3cB2 | 
"D"A4"C"G2 | "D"A3GA2 | "Gm"z2zAB2 | B3AG2 | "D"A4"C"G2 | "D"A3GA2 | 
"Gm"z2zdd2 | d3cB2 | "D"A4"C"G2 | "D"A3GA2 | "G"d4 :| 

